src/main/resources/icons/AllIcons/vcs/fromVCSDialog_dark.svg

<!-- Copyright 2000-2021 JetBrains s.r.o. Use of this source code is governed by the Apache 2.0 license that can be found in the LICENSE file. -->
<svg width="24" height="24" viewBox="0 0 24 24" fill="none" xmlns="http://www.w3.org/2000/svg">
<path d="M17.9046 4.39592C17.4183 3.90989 16.828 3.6668 16.1335 3.6668C15.4393 3.6668 14.849 3.90975 14.3628 4.39592C13.8768 4.88195 13.6338 5.47215 13.6338 6.16675C13.6338 6.61812 13.7463 7.03698 13.972 7.42322C14.1977 7.80951 14.5013 8.11125 14.8835 8.32816C14.8835 8.77953 14.8468 9.17681 14.7731 9.51964C14.6992 9.86247 14.5777 10.164 14.4085 10.4246C14.2389 10.685 14.0635 10.9062 13.8811 11.0886C13.6986 11.271 13.4425 11.4423 13.1127 11.603C12.7829 11.7636 12.4767 11.898 12.1946 12.0066C11.9126 12.115 11.5327 12.243 11.0553 12.3906C10.1871 12.6598 9.51883 12.907 9.05004 13.1329V6.66131C9.432 6.44445 9.73583 6.14276 9.9615 5.75647C10.1871 5.37018 10.2999 4.95128 10.2999 4.4999C10.2999 3.80554 10.057 3.2152 9.57083 2.72916C9.08484 2.24318 8.49464 2 7.80009 2C7.10549 2 6.51529 2.24299 6.02912 2.72916C5.54313 3.2152 5.3 3.80554 5.3 4.4999C5.3 4.95128 5.41283 5.37018 5.63845 5.75647C5.86412 6.14276 6.1679 6.44445 6.54991 6.66131V17.3387C6.1679 17.5555 5.86412 17.8575 5.63845 18.2436C5.41283 18.6301 5.3 19.049 5.3 19.5002C5.3 20.1946 5.54295 20.7848 6.02912 21.2708C6.51529 21.7568 7.10563 22 7.80009 22C8.4945 22 9.08484 21.7568 9.57083 21.2708C10.0569 20.7848 10.2999 20.1945 10.2999 19.5002C10.2999 19.049 10.1871 18.6301 9.9615 18.2436C9.73579 17.8575 9.432 17.5555 9.05004 17.3387V17.0001C9.05004 16.4013 9.23014 15.9674 9.59035 15.6983C9.95055 15.4289 10.6862 15.1209 11.7975 14.7738C12.9696 14.4004 13.8508 14.0486 14.441 13.7187C16.3854 12.6165 17.3663 10.8195 17.3836 8.32811C17.7659 8.11125 18.0694 7.80947 18.2951 7.42318C18.5206 7.03688 18.6336 6.61808 18.6336 6.1667C18.6338 5.47229 18.3906 4.88209 17.9046 4.39592Z" fill="#AFB1B3"/>
</svg>

<svg width="24" height="24" viewBox="0 0 24 24" fill="none" xmlns="http://www.w3.org/2000/svg"><rect id="frame" width="24" height="24" fill="none"/><path d="M17.905 4.396a2.412 2.412 0 0 0-1.771-.73 2.41 2.41 0 0 0-1.771.73 2.41 2.41 0 0 0-.73 1.77c0 .452.113.871.339 1.257.226.387.53.688.912.905 0 .452-.037.849-.11 1.192a2.683 2.683 0 0 1-.365.905c-.17.26-.346.481-.528.664-.182.182-.438.353-.768.514-.33.16-.636.295-.918.404-.282.108-.662.236-1.14.384-.868.269-1.536.516-2.005.742V6.66a2.43 2.43 0 0 0 .911-.905c.226-.386.339-.805.339-1.256a2.41 2.41 0 0 0-.73-1.77A2.41 2.41 0 0 0 7.8 2a2.41 2.41 0 0 0-1.77.73A2.411 2.411 0 0 0 5.3 4.5c0 .451.113.87.338 1.256.226.387.53.688.912.905V17.34a2.43 2.43 0 0 0-.912.905A2.45 2.45 0 0 0 5.3 19.5c0 .695.243 1.285.73 1.77.485.487 1.076.73 1.77.73.695 0 1.285-.243 1.77-.73a2.41 2.41 0 0 0 .73-1.77c0-.451-.113-.87-.339-1.256a2.431 2.431 0 0 0-.911-.905V17c0-.599.18-1.033.54-1.302.36-.27 1.096-.577 2.207-.924 1.173-.374 2.054-.725 2.644-1.055 1.944-1.102 2.925-2.9 2.943-5.39.382-.218.685-.52.911-.906a2.45 2.45 0 0 0 .339-1.256 2.41 2.41 0 0 0-.73-1.771z" fill="#AFB1B3"/></svg>
